X: 2
T: Sligo Maid
R: reel
%S: s:4 b:16(4+4+4+4)
S: Fiddle Hell Online 2021-10-29
Z: 2021 John Chambers <jc:trillian.mit.edu>
M: C|
L: 1/8
K: Am
|:\
"Am"A2BA Bdef | gedB AGED | "G"G2BG cGBG | DEGA BAGB |
"Am"A2BA Bdef | gedB AGED | "G"G2BA G2GE | DEGA "Am"BAA2 :|
|:\
"Am"eaag a2ga | bgaf gfed | "G"Bgfg gage | dega bagf |
"Am"eaag a2ga | bgaf gfed | "G"Bgfg edef | gedB "Am"BAA2 :|


